src/components/Icon/svg-icon/main/ad-equiv.svg

<svg xmlns="http://www.w3.org/2000/svg" width="24" height="24"><path fill="#677078" d="M12 2C6.48 2 2 6.48 2 12s4.48 10 10 10 10-4.48 10-10S17.52 2 12 2zm1.41 16.09V20h-2.67v-1.93c-1.71-.36-3.16-1.46-3.27-3.4h1.96c.1 1.05.82 1.87 2.65 1.87 1.96 0 2.4-.98 2.4-1.59 0-.83-.44-1.61-2.67-2.14-2.48-.6-4.18-1.62-4.18-3.67 0-1.72 1.39-2.84 3.11-3.21V4h2.67v1.95c1.86.45 2.79 1.86 2.85 3.39H14.3c-.05-1.11-.64-1.87-2.22-1.87-1.5 0-2.4.68-2.4 1.64 0 .84.65 1.39 2.67 1.91s4.18 1.39 4.18 3.91c-.01 1.83-1.38 2.83-3.12 3.16z"/></svg>

<svg xmlns="http://www.w3.org/2000/svg" width="24" height="24" viewBox="0 0 24 24">
  <path fill="#677078" d="M12,2 C6.48,2 2,6.48 2,12 C2,17.52 6.48,22 12,22 C17.52,22 22,17.52 22,12 C22,6.48 17.52,2 12,2 Z M13.41,18.09 L13.41,20 L10.74,20 L10.74,18.07 C9.03,17.71 7.58,16.61 7.47,14.67 L9.43,14.67 C9.53,15.72 10.25,16.54 12.08,16.54 C14.04,16.54 14.48,15.56 14.48,14.95 C14.48,14.12 14.04,13.34 11.81,12.81 C9.33,12.21 7.63,11.19 7.63,9.14 C7.63,7.42 9.02,6.3 10.74,5.93 L10.74,4 L13.41,4 L13.41,5.95 C15.27,6.4 16.2,7.81 16.26,9.34 L14.3,9.34 C14.25,8.23 13.66,7.47 12.08,7.47 C10.58,7.47 9.68,8.15 9.68,9.11 C9.68,9.95 10.33,10.5 12.35,11.02 C14.37,11.54 16.53,12.41 16.53,14.93 C16.52,16.76 15.15,17.76 13.41,18.09 Z"/>
</svg>
